adaptive-icons/Test-Icons--V5/action/bug-10.svg

<svg height="10" viewBox="0 0 10 10" width="10" xmlns="http://www.w3.org/2000/svg"><path d="m6.242 2.316c.64-.401.962-.922 1.042-1.483m-4.568 0c.08.561.441 1.042 1.042 1.483m3.566 2.003a2.325 2.325 0 0 0 -2.324-2.324c-1.282 0-2.324 1.002-2.324 2.284v2.564a2.325 2.325 0 0 0 2.324 2.324 2.325 2.325 0 0 0 2.324-2.324zm1.843 3.686-.441-.48h-1.504m1.945-2.853-.441-.481h-1.402m-4.648 0h-1.402l-.44.48m8.333 1.667-.441-.48h-1.402m-4.546 1.666h-1.504l-.44.48m1.842-2.146h-1.402l-.44.48m3.685 1.186h.962m-1.403-3.334h1.843m-1.843 1.667h1.843" fill="none" stroke="#282d37" stroke-linecap="round" stroke-linejoin="round" stroke-width="1.125"/></svg>

<svg xmlns="http://www.w3.org/2000/svg" id="3" width="10" height="10" viewBox="0 0 10 10"><g fill="none" fill-rule="evenodd" stroke-linecap="round" stroke-linejoin="round" class="page-1"><g stroke="#282D37" stroke-width="1.125" class="bug"><path d="M6.242 2.316c.64-.401.962-.922 1.042-1.483m-4.568 0c.08.561.441 1.042 1.042 1.483m3.566 2.003A2.325 2.325 0 0 0 5 1.995c-1.282 0-2.324 1.002-2.324 2.284v2.564A2.325 2.325 0 0 0 5 9.167a2.325 2.325 0 0 0 2.324-2.324V4.319Zm1.843 3.686-.441-.48H7.222m1.945-2.853-.441-.481H7.324m-4.648 0H1.274l-.44.48m8.333 1.667-.441-.48H7.324M2.778 7.524H1.274l-.44.48m1.842-2.146H1.274l-.44.48m3.685 1.186h.962M4.078 4.19h1.843M4.078 5.857h1.843" class="stroke"/></g></g></svg>
